X: 118
T: Da Slockit Light
M:4/4
R:air
C:Tom Anderson
L:1/8
Z:added by Alf warnock alf0@rogers.com - www.alfwarnock.info/alfs
K:D
FE|"D"D3F "F#m"A2d2|"Bm"fedc "D"d2A2|"G"B2d2 "D"A2d2|"Em"BAGF "A7"EGFE|
"D"D3F "F#m/C#"A2d2|"D6"fedc "D"d2A2|"G"B2G2 "A7"A[GA][FA][EA]|"D"[A,6D6]FE|
"D"D3F "F#m/C#"A2d2|"Bm"fedc "D"d2A2|"G"B2d2 "D"A2d2|"Em"BAGF "A7"EGFE|
"D"D3F "F#m/C#"A2d2|"Bm"fedc "D"d2A2|"G"B2G2 "A7"A[GA][FA][EA]|"D"[A,6D6]zg||
"D"f2a2 "A7"e3c|"G"d3e "A7"dcBA|"D"f2a2 "E7"e2^g2|"A7"a6g2|
"D"f2a2 "A7"e3c|"G"d3e "A7"dcBA|"G"B2G2 "A7"AGFE|"D"D6zg|
"D"f2a2 "A7"e3c|"G"d3e dcBA|"G"B2d2 "D"A2d2|"Em"BAGF "A7"EGFE|
"D"D3F "F#m/C#"A2d2|"Bb"fedc "D"d2A2|"G"B2G2 "A7"A[GA][FA][EA]|"D"[A,8D8]|]
